; generated by PrusaSlicer 2.2.0+win64 on 2020-04-17 at 18:25:58 UTC


;
;

;
;
; 

; external perimeters extrusion width = 0.45mm
; perimeters extrusion width = 0.45mm
; infill extrusion width = 0.45mm
; solid infill extrusion width = 0.45mm
; top infill extrusion width = 0.40mm
; first layer extrusion width = 0.42mm

; external perimeters extrusion width = 0.45mm
; perimeters extrusion width = 0.45mm
; infill extrusion width = 0.45mm
; solid infill extrusion width = 0.45mm
; top infill extrusion width = 0.40mm
; first layer extrusion width = 0.42mm

; external perimeters extrusion width = 0.45mm
; perimeters extrusion width = 0.45mm
; infill extrusion width = 0.45mm
; solid infill extrusion width = 0.45mm
; top infill extrusion width = 0.40mm
; first layer extrusion width = 0.42mm

; external perimeters extrusion width = 0.45mm
; perimeters extrusion width = 0.45mm
; infill extrusion width = 0.45mm
; solid infill extrusion width = 0.45mm
; top infill extrusion width = 0.40mm
; first layer extrusion width = 0.42mm

M73 P0 R129
M201 X1250 Y1250 Z400 E5000 ; sets maximum accelerations, mm/sec^2
M203 X180 Y180 Z12 E80 ; sets maximum feedrates, mm/sec
M204 P1250 R1250 T1250 ; sets acceleration (P, T) and retract acceleration (R), mm/sec^2
M205 X8.00 Y8.00 Z2.00 E10.00 ; sets the jerk limits, mm/sec
M205 S0 T0 ; sets the minimum extruding and travel feed rate, mm/sec
M107
G90 ; use absolute coordinates
M83 ; extruder relative mode
M104 S170 ; set extruder temp for bed leveling
M140 S85 ; set bed temp
M109 R170 ; wait for bed leveling temp
M190 S85 ; wait for bed temp
G28 ; home all without mesh bed level
G29 ; mesh bed leveling 
M104 S245 ; set extruder temp
G92 E0.0
G1 Y-2.0 X179 F2400
G1 Z3 F720
M109 S245 ; wait for extruder temp

; intro line
G1 X170 F1000
G1 Z0.2 F720
G1 X110.0 E8.0 F900
M73 P0 R129
G1 X40.0 E10.0 F700
G92 E0.0

M221 S95 ; set flow
G21 ; set units to millimeters
G90 ; use absolute coordinates
M83 ; use relative distances for extrusion
M900 K0.2 ; Filament gcode
;BEFORE_LAYER_CHANGE
G92 E0.0
;0.2


G1 Z0.200 F10800.000
;AFTER_LAYER_CHANGE
;0.2
G1 E-3.20000 F2400.00000
G1 Z0.400 F10800.000
G1 X35.114 Y81.771
G1 Z0.200
G1 E3.20000 F1500.00000
M204 S1000
G1 F1200.000
G1 X35.758 Y81.727 E0.02023
G1 X35.504 Y82.444 E0.02385
G1 X34.860 Y84.728 E0.07442
G1 X31.958 Y79.343 E0.19181
G1 X31.865 Y79.098 E0.00823
G1 X31.844 Y78.889 E0.00660
G1 X31.877 Y78.681 E0.00660
G1 X31.963 Y78.489 E0.00660
G1 X32.096 Y78.326 E0.00660
G1 X32.267 Y78.202 E0.00660
G1 X32.464 Y78.128 E0.00660
G1 X32.673 Y78.106 E0.00660
G1 X32.881 Y78.140 E0.00660
G1 X33.073 Y78.226 E0.00660
G1 X33.236 Y78.359 E0.00660
G1 X33.390 Y78.572 E0.00823
G1 X35.086 Y81.719 E0.11209
G1 E-2.24000 F2400.00000
G1 F8640.000
G1 X35.758 Y81.727 E-0.17743
G1 X35.504 Y82.444 E-0.20074
G1 X34.955 Y84.391 E-0.53383
G1 E-0.04800 F2400.00000
G1 Z0.400 F10800.000
G1 X60.473 Y148.753
G1 Z0.200
G1 E3.20000 F1500.00000
G1 F1200.000
G1 X62.100 Y149.663 E0.05844
G1 X62.099 Y153.906 E0.13302
G1 X62.065 Y154.166 E0.00823
G1 X61.984 Y154.360 E0.00660
G1 X61.856 Y154.527 E0.00660
G1 X61.689 Y154.656 E0.00660
G1 X61.495 Y154.736 E0.00660
G1 X61.286 Y154.764 E0.00660
G1 X61.078 Y154.736 E0.00660
G1 X60.883 Y154.656 E0.00660
G1 X60.716 Y154.527 E0.00660
G1 X60.588 Y154.361 E0.00660
G1 X60.508 Y154.166 E0.00660
G1 X60.473 Y153.906 E0.00823
G1 X60.473 Y148.813 E0.15968
G1 E-2.24000 F2400.00000
G1 F8640.000
G1 X62.100 Y149.663 E-0.48428
G1 X62.100 Y151.284 E-0.42772
G1 E-0.04800 F2400.00000
G1 Z0.400 F10800.000
G1 X117.900 Y149.663
G1 Z0.200
G1 E3.20000 F1500.00000
G1 F1200.000
G1 X119.527 Y148.753 E0.05844
G1 X119.527 Y153.906 E0.16156
G1 X119.492 Y154.166 E0.00823
G1 X119.412 Y154.360 E0.00660
G1 X119.284 Y154.527 E0.00660
G1 X119.117 Y154.656 E0.00660
G1 X118.922 Y154.736 E0.00660
G1 X118.714 Y154.764 E0.00660
G1 X118.505 Y154.736 E0.00660
G1 X118.311 Y154.656 E0.00660
G1 X118.144 Y154.527 E0.00660
G1 X118.016 Y154.361 E0.00660
G1 X117.935 Y154.166 E0.00660
G1 X117.901 Y153.906 E0.00823
G1 X117.900 Y149.723 E0.13114
G1 E-2.24000 F2400.00000
G1 F8640.000
G1 X119.527 Y148.753 E-0.49974
G1 X119.527 Y150.315 E-0.41226
G1 E-0.04800 F2400.00000
G1 Z0.400 F10800.000
G1 X145.140 Y84.728
G1 Z0.200
G1 E3.20000 F1500.00000
G1 F1200.000
G1 X144.496 Y82.444 E0.07442
G1 X144.242 Y81.727 E0.02385
G1 X144.886 Y81.771 E0.02024
G1 X146.610 Y78.572 E0.11397
G1 X146.764 Y78.359 E0.00823
G1 X146.927 Y78.226 E0.00660
G1 X147.119 Y78.140 E0.00660
G1 X147.327 Y78.106 E0.00660
G1 X147.536 Y78.128 E0.00660
G1 X147.733 Y78.202 E0.00660
G1 X147.904 Y78.326 E0.00660
G1 X148.037 Y78.489 E0.00660
G1 X148.123 Y78.681 E0.00660
G1 X148.156 Y78.888 E0.00660
G1 X148.135 Y79.098 E0.00660
G1 X148.042 Y79.343 E0.00823
G1 X145.168 Y84.676 E0.18992
G1 E-2.24000 F2400.00000
G1 F8640.000
G1 X144.496 Y82.444 E-0.61505
G1 X144.242 Y81.727 E-0.20074
G1 X144.606 Y81.752 E-0.09621
G1 E-0.04800 F2400.00000
G1 Z0.400 F10800.000
G1 X144.142 Y81.342
G1 Z0.200
G1 E3.20000 F1500.00000
G1 F1200.000
G1 X144.669 Y81.378 E0.01658
G1 X146.290 Y78.371 E0.10712
G1 X146.487 Y78.098 E0.01056
G1 X146.728 Y77.902 E0.00971
G1 X147.010 Y77.775 E0.00971
G1 X147.316 Y77.726 E0.00971
G1 X147.624 Y77.758 E0.00971
G1 X147.913 Y77.868 E0.00971
G1 X148.165 Y78.049 E0.00971
G1 X148.360 Y78.289 E0.00971
G1 X148.487 Y78.572 E0.00971
G1 X148.536 Y78.877 E0.00971
G1 X148.505 Y79.186 E0.00971
G1 X148.385 Y79.500 E0.01056
G1 X145.309 Y85.210 E0.20335
G1 X146.116 Y88.747 E0.11375
G1 X146.681 Y92.162 E0.10854
G1 X147.038 Y95.605 E0.10853
G1 X147.186 Y99.063 E0.10853
G1 X147.124 Y102.524 E0.10853
G1 X146.853 Y105.975 E0.10853
G1 X146.375 Y109.403 E0.10853
G1 X145.689 Y112.796 E0.10853
G1 X144.800 Y116.141 E0.10853
G1 X143.710 Y119.427 E0.10854
G1 X142.423 Y122.639 E0.10850
G1 X140.944 Y125.770 E0.10856
G1 X139.278 Y128.804 E0.10854
G1 X137.433 Y131.733 E0.10853
G1 X135.413 Y134.544 E0.10854
G1 X133.225 Y137.227 E0.10855
G1 X130.880 Y139.774 E0.10854
G1 X128.386 Y142.174 E0.10854
G1 X125.751 Y144.420 E0.10855
G1 X122.985 Y146.500 E0.10852
G1 X119.904 Y148.538 E0.11581
G1 X119.904 Y153.931 E0.16909
G1 X119.860 Y154.265 E0.01056
G1 X119.741 Y154.551 E0.00971
G1 X119.553 Y154.796 E0.00971
G1 X119.307 Y154.985 E0.00971
G1 X119.021 Y155.103 E0.00971
G1 X118.714 Y155.144 E0.00971
G1 X118.407 Y155.103 E0.00971
G1 X118.121 Y154.985 E0.00971
G1 X117.875 Y154.796 E0.00971
G1 X117.686 Y154.551 E0.00971
G1 X117.568 Y154.264 E0.00971
G1 X117.524 Y153.931 E0.01056
G1 X117.523 Y149.939 E0.12515
G1 X113.781 Y151.791 E0.13090
G1 X110.552 Y153.150 E0.10984
G1 X107.246 Y154.308 E0.10984
G1 X103.875 Y155.262 E0.10986
G1 X100.453 Y156.007 E0.10980
G1 X96.990 Y156.541 E0.10986
G1 X93.502 Y156.863 E0.10984
G1 X90.000 Y156.970 E0.10984
G1 X86.498 Y156.863 E0.10984
G1 X83.010 Y156.541 E0.10984
G1 X79.548 Y156.007 E0.10984
G1 X76.124 Y155.261 E0.10986
G1 X72.754 Y154.308 E0.10981
G1 X69.448 Y153.150 E0.10986
G1 X66.219 Y151.791 E0.10984
G1 X62.477 Y149.939 E0.13091
G1 X62.476 Y153.931 E0.12515
G1 X62.432 Y154.265 E0.01056
G1 X62.314 Y154.551 E0.00971
G1 X62.125 Y154.796 E0.00971
G1 X61.879 Y154.985 E0.00971
G1 X61.593 Y155.103 E0.00971
G1 X61.286 Y155.144 E0.00971
G1 X60.979 Y155.103 E0.00971
G1 X60.693 Y154.985 E0.00971
G1 X60.447 Y154.796 E0.00971
G1 X60.259 Y154.551 E0.00971
G1 X60.140 Y154.264 E0.00971
G1 X60.096 Y153.931 E0.01056
G1 X60.096 Y148.538 E0.16909
G1 X57.016 Y146.500 E0.11581
G1 X54.249 Y144.419 E0.10853
G1 X51.615 Y142.174 E0.10853
G1 X49.120 Y139.774 E0.10856
G1 X46.775 Y137.227 E0.10854
G1 X44.587 Y134.544 E0.10855
G1 X42.567 Y131.733 E0.10854
G1 X40.722 Y128.804 E0.10853
G1 X39.056 Y125.769 E0.10857
G1 X38.657 Y124.944 E0.02872
G1 X37.577 Y122.640 E0.07977
G1 X36.290 Y119.427 E0.10854
G1 X35.200 Y116.141 E0.10853
G1 X34.311 Y112.795 E0.10855
G1 X33.980 Y111.215 E0.05063
G1 X33.626 Y109.404 E0.05787
G1 X33.147 Y105.975 E0.10855
G1 X32.876 Y102.524 E0.10853
G1 X32.815 Y99.063 E0.10853
G1 X32.963 Y95.605 E0.10854
G1 X33.216 Y93.073 E0.07976
G1 X33.319 Y92.163 E0.02873
G1 X33.884 Y88.747 E0.10857
G1 X34.691 Y85.210 E0.11375
G1 X31.615 Y79.500 E0.20335
G1 X31.495 Y79.186 E0.01056
G1 X31.464 Y78.877 E0.00971
G1 X31.513 Y78.572 E0.00971
G1 X31.640 Y78.289 E0.00971
G1 X31.835 Y78.049 E0.00971
G1 X32.087 Y77.868 E0.00971
G1 X32.376 Y77.758 E0.00971
G1 X32.684 Y77.726 E0.00971
G1 X32.990 Y77.775 E0.00971
G1 X33.273 Y77.902 E0.00971
G1 X33.513 Y78.098 E0.00971
G1 X33.710 Y78.371 E0.01056
G1 X35.331 Y81.378 E0.10712
G1 X35.858 Y81.342 E0.01658
G1 X36.693 Y79.092 E0.07526
G1 X37.103 Y78.049 E0.03513
G1 X38.127 Y75.711 E0.08003
G1 X38.423 Y75.082 E0.02180
G1 X39.478 Y73.009 E0.07292
G1 X39.707 Y73.407 E0.01439
G1 X38.490 Y75.821 E0.08475
G1 X37.252 Y78.724 E0.09896
G1 X37.073 Y79.150 E0.01448
G1 X35.863 Y82.558 E0.11340
G1 X34.883 Y86.040 E0.11342
G1 X34.121 Y89.576 E0.11341
G1 X33.587 Y93.153 E0.11341
G1 X33.280 Y96.757 E0.11341
G1 X33.204 Y100.373 E0.11340
G1 X33.357 Y103.987 E0.11340
G1 X33.740 Y107.583 E0.11340
G1 X34.351 Y111.148 E0.11340
G1 X35.187 Y114.667 E0.11340
G1 X36.244 Y118.125 E0.11338
G1 X37.521 Y121.510 E0.11344
G1 X39.009 Y124.807 E0.11339
G1 X40.704 Y128.002 E0.11341
G1 X42.598 Y131.083 E0.11341
G1 X44.685 Y134.038 E0.11342
G1 X46.955 Y136.854 E0.11342
G1 X49.402 Y139.519 E0.11343
G1 X52.014 Y142.022 E0.11343
G1 X54.781 Y144.352 E0.11342
G1 X57.689 Y146.502 E0.11341
G1 X60.726 Y148.468 E0.11342
G1 X63.887 Y150.226 E0.11341
G1 X67.152 Y151.785 E0.11343
G1 X70.508 Y153.133 E0.11339
G1 X73.943 Y154.264 E0.11341
G1 X77.444 Y155.175 E0.11341
G1 X80.995 Y155.861 E0.11340
G1 X84.582 Y156.320 E0.11340
G1 X88.192 Y156.550 E0.11340
G1 X91.808 Y156.550 E0.11340
G1 X95.418 Y156.320 E0.11340
G1 X99.005 Y155.861 E0.11340
G1 X102.557 Y155.175 E0.11340
G1 X106.057 Y154.264 E0.11340
G1 X109.492 Y153.133 E0.11341
G1 X112.849 Y151.785 E0.11341
G1 X116.113 Y150.226 E0.11340
G1 X119.274 Y148.468 E0.11342
G1 X122.311 Y146.502 E0.11342
G1 X125.219 Y144.352 E0.11341
G1 X127.986 Y142.022 E0.11342
G1 X130.599 Y139.519 E0.11343
G1 X133.045 Y136.854 E0.11343
G1 X135.315 Y134.038 E0.11342
G1 X137.402 Y131.083 E0.11342
G1 X139.296 Y128.002 E0.11341
G1 X140.991 Y124.807 E0.11341
G1 X142.480 Y121.510 E0.11341
G1 X143.755 Y118.126 E0.11340
G1 X144.813 Y114.667 E0.11340
G1 X145.649 Y111.148 E0.11340
G1 X146.260 Y107.583 E0.11340
G1 X146.643 Y103.987 E0.11340
G1 X146.796 Y100.373 E0.11340
G1 X146.720 Y96.757 E0.11340
G1 X146.413 Y93.153 E0.11341
G1 X145.879 Y89.577 E0.11340
G1 X145.117 Y86.040 E0.11343
G1 X144.137 Y82.558 E0.11341
G1 X142.927 Y79.149 E0.11342
G1 X141.510 Y75.821 E0.11341
G1 X140.291 Y73.403 E0.08490
G1 X140.522 Y72.997 E0.01466
G1 X141.577 Y75.081 E0.07325
G1 X141.873 Y75.711 E0.02181
G1 X142.897 Y78.049 E0.08003
G1 X143.307 Y79.092 E0.03513
G1 X144.121 Y81.286 E0.07338
G1 X144.171 Y81.741 F10800.000
G1 E-2.24000 F2400.00000
G1 F8640.000
G1 X144.669 Y81.378 E-0.14678
G1 X146.045 Y78.826 E-0.76522
G1 E-0.04800 F2400.00000
G1 Z0.400 F10800.000
G1 X137.152 Y75.091
G1 Z0.200
G1 E3.20000 F1500.00000
G1 F1200.000
G1 X137.877 Y77.193 E0.06972
G1 X138.752 Y80.419 E0.10482
G1 X139.411 Y83.697 E0.10482
G1 X139.849 Y87.012 E0.10482
G1 X140.065 Y90.348 E0.10482
G1 X140.059 Y93.691 E0.10482
G1 X139.829 Y97.026 E0.10482
G1 X139.377 Y100.339 E0.10482
G1 X138.705 Y103.614 E0.10482
G1 X137.817 Y106.837 E0.10482
G1 X136.715 Y109.993 E0.10482
G1 X135.405 Y113.069 E0.10482
G1 X133.893 Y116.051 E0.10482
G1 X132.186 Y118.925 E0.10482
G1 X130.290 Y121.679 E0.10482
G1 X128.215 Y124.300 E0.10482
G1 X125.970 Y126.777 E0.10482
G1 X123.564 Y129.099 E0.10482
G1 X121.009 Y131.255 E0.10482
G1 X118.316 Y133.236 E0.10482
G1 X115.497 Y135.033 E0.10482
G1 X112.564 Y136.638 E0.10482
G1 X109.531 Y138.043 E0.10482
G1 X106.410 Y139.243 E0.10482
G1 X103.217 Y140.233 E0.10482
G1 X99.965 Y141.007 E0.10482
G1 X96.668 Y141.562 E0.10482
G1 X93.341 Y141.896 E0.10482
G1 X90.000 Y142.008 E0.10482
G1 X86.659 Y141.896 E0.10482
G1 X83.332 Y141.562 E0.10482
G1 X80.036 Y141.007 E0.10482
G1 X76.783 Y140.233 E0.10482
G1 X73.590 Y139.243 E0.10482
G1 X70.469 Y138.043 E0.10482
G1 X67.436 Y136.638 E0.10482
G1 X64.503 Y135.033 E0.10482
G1 X61.684 Y133.236 E0.10482
G1 X58.991 Y131.255 E0.10482
G1 X56.436 Y129.099 E0.10482
G1 X54.030 Y126.777 E0.10482
G1 X51.785 Y124.300 E0.10482
G1 X49.710 Y121.679 E0.10482
G1 X47.814 Y118.925 E0.10482
G1 X46.107 Y116.051 E0.10482
G1 X44.595 Y113.069 E0.10482
G1 X43.285 Y109.993 E0.10482
G1 X42.183 Y106.837 E0.10482
G1 X41.295 Y103.614 E0.10482
G1 X40.623 Y100.339 E0.10482
G1 X40.171 Y97.026 E0.10482
G1 X39.942 Y93.691 E0.10482
G1 X39.935 Y90.348 E0.10482
G1 X40.151 Y87.012 E0.10482
G1 X40.589 Y83.697 E0.10482
G1 X41.248 Y80.419 E0.10482
G1 X42.123 Y77.193 E0.10482
G1 X42.848 Y75.091 E0.06972
G1 X43.149 Y75.076 E0.00946
G1 X42.374 Y77.331 E0.07476
G1 X41.493 Y80.597 E0.10607
G1 X40.837 Y83.916 E0.10607
G1 X40.407 Y87.271 E0.10607
G1 X40.206 Y90.648 E0.10607
G1 X40.235 Y94.031 E0.10607
G1 X40.493 Y97.404 E0.10607
G1 X40.979 Y100.751 E0.10607
G1 X41.692 Y104.058 E0.10607
G1 X42.627 Y107.309 E0.10607
G1 X43.781 Y110.489 E0.10607
G1 X45.149 Y113.583 E0.10607
G1 X46.722 Y116.578 E0.10607
G1 X48.496 Y119.458 E0.10607
G1 X50.461 Y122.212 E0.10607
G1 X52.608 Y124.826 E0.10607
G1 X54.928 Y127.288 E0.10607
G1 X57.410 Y129.587 E0.10607
G1 X60.042 Y131.712 E0.10607
G1 X62.812 Y133.654 E0.10607
G1 X65.708 Y135.403 E0.10607
G1 X68.715 Y136.951 E0.10607
G1 X71.821 Y138.292 E0.10607
G1 X75.010 Y139.419 E0.10607
G1 X78.269 Y140.327 E0.10607
G1 X81.582 Y141.012 E0.10607
G1 X84.934 Y141.470 E0.10607
G1 X88.309 Y141.699 E0.10607
G1 X91.691 Y141.699 E0.10607
G1 X95.066 Y141.470 E0.10607
G1 X98.418 Y141.012 E0.10607
G1 X101.731 Y140.327 E0.10607
G1 X104.990 Y139.419 E0.10606
G1 X108.179 Y138.292 E0.10607
G1 X111.285 Y136.951 E0.10607
G1 X114.293 Y135.403 E0.10607
G1 X117.188 Y133.654 E0.10607
G1 X119.958 Y131.712 E0.10607
G1 X122.590 Y129.587 E0.10607
G1 X125.072 Y127.288 E0.10607
G1 X127.392 Y124.826 E0.10607
G1 X129.539 Y122.212 E0.10607
G1 X131.504 Y119.458 E0.10607
G1 X133.278 Y116.578 E0.10607
G1 X134.852 Y113.583 E0.10607
G1 X136.219 Y110.489 E0.10607
G1 X137.373 Y107.309 E0.10607
G1 X138.308 Y104.058 E0.10607
G1 X139.021 Y100.751 E0.10607
G1 X139.507 Y97.404 E0.10607
G1 X139.765 Y94.031 E0.10607
G1 X139.794 Y90.648 E0.10607
G1 X139.593 Y87.271 E0.10607
G1 X139.163 Y83.916 E0.10607
G1 X138.507 Y80.597 E0.10607
G1 X137.626 Y77.331 E0.10607
G1 X136.851 Y75.077 E0.07474
G1 X137.092 Y75.089 E0.00757
G1 X137.267 Y75.474 F10800.000
G1 E-2.24000 F2400.00000
G1 F8640.000
G1 X137.877 Y77.193 E-0.59243
G1 X138.194 Y78.362 E-0.31957
G1 E-0.04800 F2400.00000
G1 Z0.400 F10800.000
G1 X52.937 Y56.430
G1 Z0.200
G1 E3.20000 F1500.00000
G1 F1200.000
G1 X52.371 Y57.120 E0.02798
G1 X50.096 Y60.248 E0.12128
G1 X48.008 Y63.504 E0.12128
M73 P0 R128
G1 X46.114 Y66.877 E0.12128
G1 X45.438 Y68.265 E0.04842
G1 X45.272 Y68.122 E0.00687
G1 X44.852 Y67.843 E0.01581
G1 X44.342 Y67.594 E0.01780
G1 X43.802 Y67.419 E0.01779
G1 X43.368 Y67.339 E0.01384
G1 X45.177 Y64.873 E0.09588
G1 X47.231 Y62.384 E0.10118
G1 X49.431 Y60.008 E0.10154
G1 X52.895 Y56.473 E0.15517
G1 E-2.24000 F2400.00000
G1 F8640.000
G1 X52.371 Y57.120 E-0.21974
G1 X50.828 Y59.242 E-0.69226
G1 E-0.04800 F2400.00000
G1 Z0.400 F10800.000
G1 X42.682 Y67.681
G1 Z0.200
G1 E3.20000 F1500.00000
G1 F1200.000
G1 X42.957 Y67.261 E0.01574
G1 X44.879 Y64.642 E0.10187
G1 X46.947 Y62.136 E0.10186
G1 X49.158 Y59.748 E0.10205
G1 X76.933 Y31.405 E1.24425
G1 X76.951 Y31.422 E0.00077
G1 X77.203 Y31.673 E0.01114
G1 X57.716 Y51.558 E0.87297
G1 X55.109 Y54.378 E0.12040
G1 X52.669 Y57.351 E0.12059
G1 X50.407 Y60.461 E0.12059
G1 X48.331 Y63.698 E0.12059
G1 X46.448 Y67.052 E0.12059
G1 X45.551 Y68.896 E0.06429
G1 X45.434 Y68.761 E0.00558
G1 X45.044 Y68.422 E0.01620
G1 X44.664 Y68.171 E0.01426
G1 X44.200 Y67.945 E0.01620
G1 X43.709 Y67.785 E0.01619
G1 X43.261 Y67.702 E0.01427
G1 X42.742 Y67.676 E0.01631
G1 X43.006 Y67.446 F10800.000
G1 E-2.24000 F2400.00000
G1 F8640.000
G1 X42.957 Y67.261 E-0.12330
G1 X44.725 Y64.851 E-0.78870
G1 E-0.04800 F2400.00000
G1 Z0.400 F10800.000
